X: 5
T: Medway Jigs II, The (©Paul Milde; J-43)
I: Medway Jigs II, The	J-43	G	jig
M: 6/8
R: jig
K: G
"G"BAG BAG| BAG d2G| B2G "C"AGE| "D"D3 C3|"G"B,CD D2G| D2E G2A| B2d dcB| "D"A3- A2G|
"G"BAG BAG| BAG d2G| B2G "C"AGE| "D"D3 C3|"G"B,CD D2E| D2E G2 A| "D"B2B AGA| "G"G3- G2 |]
d| "G"Bcd dcB| "C"c2d g2d| "G"Bcd e2d| "C"c2B "D"A3|   "G"B2c dcB| "D"A2B c2A| "Em"GAB BAG| "D"A2F "G"G2d|
   "G"Bcd dcB| "C"c2d g2d| "G"Bcd e2d| "C"c2B "D"A3|   "G"Bcd "D"c2A| "G"B2G "D"ABc| ABc "G"B2G| "D"A2F "G"G3|]

